!!!OTL: 85. Friedrichs des Grossen Einzug im Olymp.
!!!ODT: vor 1813
!!!ARE: Europa, Mitteleuropa, Deutschland, Thueringen
!!!SCT: B0085
!!!TXL: @@DE
!!!YEM: Copyright 1995, estate of Helmut Schaffrath.
**kern	**text
*ICvox	*
*Ivox	*
*M2/4	*
*clefG2	*
*k[f#]	*
*G:	*
!LO:TX:a:t=Marſchtempo.	!
{8d	Als
=1	=1
8g	jüng-
8g	-ſtens
8a	Herr
8a	Mer-
=2	=2
8b	-cu-
8b	-ri-
8cc}	-us
{8cc	im
=3	=3
8b/	Him-
8g	-mel
8a	re-
8f#	-fe-
=4	=4
8g	-rir-
8g	-te,
8r}	.
{8d	Daß
=5	=5
8g	Kö-
8g	-nig
8a	Fried-
8a	-rich
=6	=6
8b	Ma-
8b	-ri-
8cc}	-mus
{8cc	noch
=7	=7
8b/	im-
8g	-mer
8a	hier
8f#	re-
=8	=8
8g	-gier-
8g	-te,
8r}	.
{8g	ſprach
=9	=9
8a	Ʒeus:
8a	"Er
8a	hat
8a	ge-
=10	=10
8b/	-nug
8g	ge-
8g}	-than,
{8b	der
=11	=11
8a	Tod
8a	hol
8a	ihn
8a	von
=12	=12
8b/	ſei-
8g	-ner
8g}	Bahn;
{8d	man
=13	=13
8g	ge-
8g	-be
8a	Thron
8a	und
=14	=14
8b	Kro-
8b	-ne
8r}	.
{8cc	nun
=15	=15
8b/	ſei-
8g	-nes
8a	Bru-
8d	-ders
=16	=16
8g	Soh-
8g	-ne!"
8r}	.
==	==
!!!AGN: Helden -, Ehren -, Gedaechtnis -, Kriegs - Lied
!!!GTL: Helden- und Ehrengedächtnißlieder
!!!ONB: ESAC (Essen Associative Code) Database: BOEHME
!!!AMT: simple duple
!!!AIN: vox
!!!EED: Helmut Schaffrath
!!!EEV: 1.0
!!@@COMMENT:"Das Lied wurde 1813-15 von deutschen Kriegern gesungen,
!!war vermutlich aber schon früher, bald nach dem Tode Friedrich's II (17 Aug. 1786) entstanden."
!!Verfasser unbekannt.
!!@@END:
!!!URL-scan: https://archive.org/details/BoehmeVtLieder1895/page/n95/mode/2up
!!!ENC: Anna Maria Matuszewska
!!!EEV: 2024/17/06
*-	*-
